public/images/poses-sm/Butterﬂy.svg

<svg width="800" height="900" fill="none" xmlns="http://www.w3.org/2000/svg"><path d="M468.385 394.077c-6.513-2.057-14.083-3.687-22.338-5.003 0 0-38.944-6.766-37.059-42.701.343-6.862 0-9.328 3.885-18.448M385.068 667.071s-6.259 13.283-3.497 25.082M335.266 623.747c-1.719-17.332-4.353-47.282-7.589-61.498 0 0-1.563-4.924-2.714-10.184-3.814-16.96-7.968-59.973-6.382-82.99M410.93 667.798s6.258 13.278 3.496 25.082" stroke="#000" stroke-width="5" stroke-miterlimit="10"/><path d="M651.38 644.501c-5.713-14.294-39.992-22.87-71.415-25.729-31.422-2.858-79.984 0-97.124-11.435-17.14-11.434-19.997-51.458-19.997-51.458L400 544.443l-62.846 11.434s-2.855 40.025-19.995 51.459c-17.14 11.435-65.702 8.576-97.125 11.435-31.422 2.859-65.701 11.435-71.414 25.728-5.713 14.295 5.713 31.448 34.279 40.024 28.565 8.577 119.977 14.296 142.83 14.296 42.849 0 74.271-8.576 74.271-8.576s31.422 8.576 74.272 8.576c22.852 0 114.263-5.718 142.83-14.296 28.565-8.573 39.991-25.727 34.278-40.022Z" fill="#fff" stroke="#000" stroke-width="5" stroke-miterlimit="10"/><path d="M651.38 644.501c-5.713-14.294-39.992-22.87-71.415-25.729-31.422-2.858-79.984 0-97.124-11.435-17.14-11.434-19.997-51.458-19.997-51.458L400 544.443l-62.846 11.434s-2.855 40.025-19.995 51.459c-17.14 11.435-65.702 8.576-97.125 11.435-31.422 2.859-65.701 11.435-71.414 25.728-5.713 14.295 5.713 31.448 34.279 40.024 28.565 8.577 119.977 14.296 142.83 14.296 42.849 0 74.271-8.576 74.271-8.576s31.422 8.576 74.272 8.576c22.852 0 114.263-5.718 142.83-14.296 28.565-8.573 39.991-25.727 34.278-40.022Z" stroke="#000" stroke-width="5" stroke-miterlimit="10"/><path d="M574.253 635.926c-51.418-2.859-79.984 14.295-102.837 22.87-22.853 8.576-29.326 11.135-42.848 5.718-28.567-11.435-31.423 0-28.567 11.434 2.857 11.435 14.046 17.154 31.422 17.154h42.85c34.279 0 54.275 2.858 79.985 0" fill="#fff"/><path d="M574.253 635.926c-51.418-2.859-79.984 14.295-102.837 22.87-22.853 8.576-29.326 11.135-42.848 5.718-28.567-11.435-31.423 0-28.567 11.434 2.857 11.435 14.046 17.154 31.422 17.154h42.85c34.279 0 54.275 2.858 79.985 0" stroke="#000" stroke-width="5" stroke-miterlimit="10"/><path d="M574.253 635.926c-51.418-2.859-79.984 14.295-102.837 22.87-22.853 8.576-29.326 11.135-42.848 5.718-28.567-11.435-31.423 0-28.567 11.434 2.857 11.435 14.046 17.154 31.422 17.154h42.85c34.279 0 54.275 2.858 79.985 0" stroke="#000" stroke-width="5" stroke-miterlimit="10"/><path d="M225.434 635.926c51.419-2.859 79.984 14.295 102.837 22.87 22.852 8.576 30.451 13.368 42.85 5.718 23.167-14.295 31.422 0 28.565 11.434-2.856 11.435-14.047 17.154-31.423 17.154h-42.849c-34.278 0-54.275 2.858-79.984 0" fill="#fff"/><path d="M225.434 635.926c51.419-2.859 79.984 14.295 102.837 22.87 22.852 8.576 30.451 13.368 42.85 5.718 23.167-14.295 31.422 0 28.565 11.434-2.856 11.435-14.047 17.154-31.423 17.154h-42.849c-34.278 0-54.275 2.858-79.984 0" stroke="#000" stroke-width="5" stroke-miterlimit="10"/><path d="M225.434 635.926c51.419-2.859 79.984 14.295 102.837 22.87 22.852 8.576 30.451 13.368 42.85 5.718 23.167-14.295 31.422 0 28.565 11.434-2.856 11.435-14.047 17.154-31.423 17.154h-42.849c-34.278 0-54.275 2.858-79.984 0" stroke="#000" stroke-width="5" stroke-miterlimit="10"/><path d="M459.805 435.223c-10.546-30.783-5.303-57.333-5.303-57.333s-12.155-3.224-26.219-14.217c-14.06-10.994-10.55-48.082-10.55-48.082s-.729.148-17.864.148c-17.137 0-18.039-.148-18.039-.148s3.683 37.088-10.378 48.082c-14.063 10.992-26.215 14.217-26.215 14.217s5.242 26.55-5.303 57.333c0 0 9.843 65.212-3.34 120.619 0 0 27.683 10.994 63.276 10.994s63.274-10.994 63.274-10.994c-13.182-55.409-3.339-120.619-3.339-120.619Z" fill="#fff" stroke="#000" stroke-width="5" stroke-miterlimit="10"/><path d="M459.805 435.223c-10.546-30.783-5.303-57.333-5.303-57.333s-12.155-3.224-26.219-14.217c-14.06-10.994-10.55-48.082-10.55-48.082s-.729.148-17.864.148c-17.137 0-18.039-.148-18.039-.148s3.683 37.088-10.378 48.082c-14.063 10.992-26.215 14.217-26.215 14.217s5.242 26.55-5.303 57.333c0 0 9.843 65.212-3.34 120.619 0 0 27.683 10.994 63.276 10.994s63.274-10.994 63.274-10.994c-13.182-55.409-3.339-120.619-3.339-120.619Z" stroke="#000" stroke-width="5" stroke-miterlimit="10"/><path d="M300.4 550.279c3.322 23.077 28.383 100.968 28.383 100.968 3.682 14.769 1.028 27.176 9.783 43.698 8.756 16.521 10.559 14.399 12.232 12.153 1.674-2.244 4.507-45.274-5.914-57.6-3.428-4.06-3.47-4.902-4.565-7.509l-15.328-97.51 21.008-123.551c5.44-28.002 5.44-45.155 5.44-45.155-34.279 8.576-38.779 48.846-45.706 80.046-5.712 25.731-5.333 94.46-5.333 94.46Z" fill="#fff" stroke="#000" stroke-width="5" stroke-miterlimit="10"/><path d="M300.4 550.279c3.322 23.077 28.383 100.968 28.383 100.968 3.682 14.769 1.028 27.176 9.783 43.698 8.756 16.521 10.559 14.399 12.232 12.153 1.674-2.244 4.507-45.274-5.914-57.6-3.428-4.06-3.47-4.902-4.565-7.509l-15.328-97.51 21.008-123.551c5.44-28.002 5.44-45.155 5.44-45.155-34.279 8.576-38.779 48.846-45.706 80.046-5.712 25.731-5.333 94.46-5.333 94.46Z" stroke="#000" stroke-width="5" stroke-miterlimit="10"/><path d="M500.993 550.279c-3.322 23.077-28.382 100.968-28.382 100.968-3.682 14.769-1.03 27.176-9.784 43.698-8.755 16.521-10.56 14.399-12.235 12.153-1.674-2.244-4.501-45.274 5.916-57.6 3.431-4.06 3.471-4.902 4.564-7.509l15.33-97.51-21.009-123.551c-5.437-28.002-5.437-45.155-5.437-45.155 34.278 8.576 38.776 48.846 45.706 80.046 5.712 25.731 5.331 94.46 5.331 94.46Z" fill="#fff" stroke="#000" stroke-width="5" stroke-miterlimit="10"/><path d="M500.993 550.279c-3.322 23.077-28.382 100.968-28.382 100.968-3.682 14.769-1.03 27.176-9.784 43.698-8.755 16.521-10.56 14.399-12.235 12.153-1.674-2.244-4.501-45.274 5.916-57.6 3.431-4.06 3.471-4.902 4.564-7.509l15.33-97.51-21.009-123.551c-5.437-28.002-5.437-45.155-5.437-45.155 34.278 8.576 38.776 48.846 45.706 80.046 5.712 25.731 5.331 94.46 5.331 94.46Z" stroke="#000" stroke-width="5" stroke-miterlimit="10"/><path d="M377.323 235.958c-3.759-19.843-24.206-65.183-70.024-33.851-29.082 19.889-74.861 45.381-104.531 32.751-29.672-12.633-16.94 61.862 24.461 72.114 41.396 10.248 84.695-8.88 101.567-41.543 16.868-32.661 48.527-29.471 48.527-29.471Z" fill="#000" stroke="#000" stroke-width="5" stroke-miterlimit="10"/><path d="M381.142 305.107c-5.872-9.377-1.715-19.055-4.104-30.989-3.798-18.953 18.571-38.804 40.158-38.542 28.497.345 34.448 101.916 18.061 104.414-9.707 1.479-27.849-5.948-41.5-21.564-4.391-5.021-12.615-13.319-12.615-13.319Z" fill="#fff" stroke="#000" stroke-width="5" stroke-miterlimit="10"/><path d="M381.142 305.107c-5.872-9.377-1.715-19.055-4.104-30.989-3.798-18.953 18.571-38.804 40.158-38.542 28.497.345 34.448 101.916 18.061 104.414-9.707 1.479-27.849-5.948-41.5-21.564-4.391-5.021-12.615-13.319-12.615-13.319Z" stroke="#000" stroke-width="5" stroke-miterlimit="10"/><path d="M429.62 246.898c.428 17.849-11.248 50.697-33.871 45.839-25.434-5.46-14.514 9.13-12.331 13.783 2.18 4.654 14.797 13.067 12.349 14.524-2.449 1.459-37.702-9.864-42.252-35.425-4.551-25.561 1.116-39.231 14.093-47.742 12.974-8.509 40.587-11.101 54.238-3.474 13.656 7.628 7.774 12.495 7.774 12.495Z" fill="#000" stroke="#000" stroke-width="5" stroke-miterlimit="10"/><path d="M359.453 371.667c11.983 15.543 26.266 18.403 40.548 18.403 14.283 0 32.012-5.357 40.289-18.403M476.773 656.686c-2.461 16.529-.311 30.622 2.898 36.439M322.911 656.686c2.857 13.669-2.856 36.539-2.856 36.539" stroke="#000" stroke-width="5" stroke-miterlimit="10"/></svg>

<svg width="800" height="900" viewBox="0 0 800 900" fill="none" xmlns="http://www.w3.org/2000/svg">
<path d="M468.385 394.077C461.872 392.02 454.302 390.39 446.047 389.074C446.047 389.074 407.103 382.308 408.988 346.373C409.331 339.511 408.988 337.045 412.873 327.925" stroke="black" stroke-width="5" stroke-miterlimit="10"/>
<path d="M385.068 667.071C385.068 667.071 378.809 680.354 381.571 692.153" stroke="black" stroke-width="5" stroke-miterlimit="10"/>
<path d="M335.266 623.747C333.547 606.415 330.913 576.465 327.677 562.249C327.677 562.249 326.114 557.325 324.963 552.065C321.149 535.105 316.995 492.092 318.581 469.075" stroke="black" stroke-width="5" stroke-miterlimit="10"/>
<path d="M410.93 667.798C410.93 667.798 417.188 681.076 414.426 692.88" stroke="black" stroke-width="5" stroke-miterlimit="10"/>
<path d="M651.38 644.501C645.667 630.207 611.388 621.631 579.965 618.772C548.543 615.914 499.981 618.772 482.841 607.337C465.701 595.903 462.844 555.879 462.844 555.879L400 544.443L337.154 555.877C337.154 555.877 334.299 595.902 317.159 607.336C300.019 618.771 251.457 615.912 220.034 618.771C188.612 621.63 154.333 630.206 148.62 644.499C142.907 658.794 154.333 675.947 182.899 684.523C211.464 693.1 302.876 698.819 325.729 698.819C368.578 698.819 400 690.243 400 690.243C400 690.243 431.422 698.819 474.272 698.819C497.124 698.819 588.535 693.101 617.102 684.523C645.667 675.95 657.093 658.796 651.38 644.501Z" fill="white" stroke="black" stroke-width="5" stroke-miterlimit="10"/>
<path d="M651.38 644.501C645.667 630.207 611.388 621.631 579.965 618.772C548.543 615.914 499.981 618.772 482.841 607.337C465.701 595.903 462.844 555.879 462.844 555.879L400 544.443L337.154 555.877C337.154 555.877 334.299 595.902 317.159 607.336C300.019 618.771 251.457 615.912 220.034 618.771C188.612 621.63 154.333 630.206 148.62 644.499C142.907 658.794 154.333 675.947 182.899 684.523C211.464 693.1 302.876 698.819 325.729 698.819C368.578 698.819 400 690.243 400 690.243C400 690.243 431.422 698.819 474.272 698.819C497.124 698.819 588.535 693.101 617.102 684.523C645.667 675.95 657.093 658.796 651.38 644.501Z" stroke="black" stroke-width="5" stroke-miterlimit="10"/>
<path d="M574.253 635.926C522.835 633.067 494.269 650.221 471.416 658.796C448.563 667.372 442.09 669.931 428.568 664.514C400.001 653.079 397.145 664.514 400.001 675.948C402.858 687.383 414.047 693.102 431.423 693.102H474.273C508.552 693.102 528.548 695.96 554.258 693.102" fill="white"/>
<path d="M574.253 635.926C522.835 633.067 494.269 650.221 471.416 658.796C448.563 667.372 442.09 669.931 428.568 664.514C400.001 653.079 397.145 664.514 400.001 675.948C402.858 687.383 414.047 693.102 431.423 693.102H474.273C508.552 693.102 528.548 695.96 554.258 693.102" stroke="black" stroke-width="5" stroke-miterlimit="10"/>
<path d="M574.253 635.926C522.835 633.067 494.269 650.221 471.416 658.796C448.563 667.372 442.09 669.931 428.568 664.514C400.001 653.079 397.145 664.514 400.001 675.948C402.858 687.383 414.047 693.102 431.423 693.102H474.273C508.552 693.102 528.548 695.96 554.258 693.102" stroke="black" stroke-width="5" stroke-miterlimit="10"/>
<path d="M225.434 635.926C276.853 633.067 305.418 650.221 328.271 658.796C351.123 667.372 358.722 672.164 371.121 664.514C394.288 650.219 402.543 664.514 399.686 675.948C396.83 687.383 385.639 693.102 368.263 693.102H325.414C291.136 693.102 271.139 695.96 245.43 693.102" fill="white"/>
<path d="M225.434 635.926C276.853 633.067 305.418 650.221 328.271 658.796C351.123 667.372 358.722 672.164 371.121 664.514C394.288 650.219 402.543 664.514 399.686 675.948C396.83 687.383 385.639 693.102 368.263 693.102H325.414C291.136 693.102 271.139 695.96 245.43 693.102" stroke="black" stroke-width="5" stroke-miterlimit="10"/>
<path d="M225.434 635.926C276.853 633.067 305.418 650.221 328.271 658.796C351.123 667.372 358.722 672.164 371.121 664.514C394.288 650.219 402.543 664.514 399.686 675.948C396.83 687.383 385.639 693.102 368.263 693.102H325.414C291.136 693.102 271.139 695.96 245.43 693.102" stroke="black" stroke-width="5" stroke-miterlimit="10"/>
<path d="M459.805 435.223C449.259 404.44 454.502 377.89 454.502 377.89C454.502 377.89 442.347 374.666 428.283 363.673C414.223 352.679 417.733 315.591 417.733 315.591C417.733 315.591 417.004 315.739 399.869 315.739C382.732 315.739 381.83 315.591 381.83 315.591C381.83 315.591 385.513 352.679 371.452 363.673C357.389 374.665 345.237 377.89 345.237 377.89C345.237 377.89 350.479 404.44 339.934 435.223C339.934 435.223 349.777 500.435 336.594 555.842C336.594 555.842 364.277 566.836 399.87 566.836C435.463 566.836 463.144 555.842 463.144 555.842C449.962 500.433 459.805 435.223 459.805 435.223Z" fill="white" stroke="black" stroke-width="5" stroke-miterlimit="10"/>
<path d="M459.805 435.223C449.259 404.44 454.502 377.89 454.502 377.89C454.502 377.89 442.347 374.666 428.283 363.673C414.223 352.679 417.733 315.591 417.733 315.591C417.733 315.591 417.004 315.739 399.869 315.739C382.732 315.739 381.83 315.591 381.83 315.591C381.83 315.591 385.513 352.679 371.452 363.673C357.389 374.665 345.237 377.89 345.237 377.89C345.237 377.89 350.479 404.44 339.934 435.223C339.934 435.223 349.777 500.435 336.594 555.842C336.594 555.842 364.277 566.836 399.87 566.836C435.463 566.836 463.144 555.842 463.144 555.842C449.962 500.433 459.805 435.223 459.805 435.223Z" stroke="black" stroke-width="5" stroke-miterlimit="10"/>
<path d="M300.4 550.279C303.722 573.356 328.783 651.247 328.783 651.247C332.465 666.016 329.811 678.423 338.566 694.945C347.322 711.466 349.125 709.344 350.798 707.098C352.472 704.854 355.305 661.824 344.884 649.498C341.456 645.438 341.414 644.596 340.319 641.989L324.991 544.479L345.999 420.928C351.439 392.926 351.439 375.773 351.439 375.773C317.16 384.349 312.66 424.619 305.733 455.819C300.021 481.55 300.4 550.279 300.4 550.279Z" fill="white" stroke="black" stroke-width="5" stroke-miterlimit="10"/>
<path d="M300.4 550.279C303.722 573.356 328.783 651.247 328.783 651.247C332.465 666.016 329.811 678.423 338.566 694.945C347.322 711.466 349.125 709.344 350.798 707.098C352.472 704.854 355.305 661.824 344.884 649.498C341.456 645.438 341.414 644.596 340.319 641.989L324.991 544.479L345.999 420.928C351.439 392.926 351.439 375.773 351.439 375.773C317.16 384.349 312.66 424.619 305.733 455.819C300.021 481.55 300.4 550.279 300.4 550.279Z" stroke="black" stroke-width="5" stroke-miterlimit="10"/>
<path d="M500.993 550.279C497.671 573.356 472.611 651.247 472.611 651.247C468.929 666.016 471.581 678.423 462.827 694.945C454.072 711.466 452.267 709.344 450.592 707.098C448.918 704.854 446.091 661.824 456.508 649.498C459.939 645.438 459.979 644.596 461.072 641.989L476.402 544.479L455.393 420.928C449.956 392.926 449.956 375.773 449.956 375.773C484.234 384.349 488.732 424.619 495.662 455.819C501.374 481.55 500.993 550.279 500.993 550.279Z" fill="white" stroke="black" stroke-width="5" stroke-miterlimit="10"/>
<path d="M500.993 550.279C497.671 573.356 472.611 651.247 472.611 651.247C468.929 666.016 471.581 678.423 462.827 694.945C454.072 711.466 452.267 709.344 450.592 707.098C448.918 704.854 446.091 661.824 456.508 649.498C459.939 645.438 459.979 644.596 461.072 641.989L476.402 544.479L455.393 420.928C449.956 392.926 449.956 375.773 449.956 375.773C484.234 384.349 488.732 424.619 495.662 455.819C501.374 481.55 500.993 550.279 500.993 550.279Z" stroke="black" stroke-width="5" stroke-miterlimit="10"/>
<path d="M377.323 235.958C373.564 216.115 353.117 170.775 307.299 202.107C278.217 221.996 232.438 247.488 202.768 234.858C173.096 222.225 185.828 296.72 227.229 306.972C268.625 317.22 311.924 298.092 328.796 265.429C345.664 232.768 377.323 235.958 377.323 235.958Z" fill="black" stroke="black" stroke-width="5" stroke-miterlimit="10"/>
<path d="M381.142 305.107C375.27 295.73 379.427 286.052 377.038 274.118C373.24 255.165 395.609 235.314 417.196 235.576C445.693 235.921 451.644 337.492 435.257 339.99C425.55 341.469 407.408 334.042 393.757 318.426C389.366 313.405 381.142 305.107 381.142 305.107Z" fill="white" stroke="black" stroke-width="5" stroke-miterlimit="10"/>
<path d="M381.142 305.107C375.27 295.73 379.427 286.052 377.038 274.118C373.24 255.165 395.609 235.314 417.196 235.576C445.693 235.921 451.644 337.492 435.257 339.99C425.55 341.469 407.408 334.042 393.757 318.426C389.366 313.405 381.142 305.107 381.142 305.107Z" stroke="black" stroke-width="5" stroke-miterlimit="10"/>
<path d="M429.62 246.898C430.048 264.747 418.372 297.595 395.749 292.737C370.315 287.277 381.235 301.867 383.418 306.52C385.598 311.174 398.215 319.587 395.767 321.044C393.318 322.503 358.065 311.18 353.515 285.619C348.964 260.058 354.631 246.388 367.608 237.877C380.582 229.368 408.195 226.776 421.846 234.403C435.502 242.031 429.62 246.898 429.62 246.898Z" fill="black" stroke="black" stroke-width="5" stroke-miterlimit="10"/>
<path d="M359.453 371.667C371.436 387.21 385.719 390.07 400.001 390.07C414.284 390.07 432.013 384.713 440.29 371.667" stroke="black" stroke-width="5" stroke-miterlimit="10"/>
<path d="M476.773 656.686C474.312 673.215 476.462 687.308 479.671 693.125" stroke="black" stroke-width="5" stroke-miterlimit="10"/>
<path d="M322.911 656.686C325.768 670.355 320.055 693.225 320.055 693.225" stroke="black" stroke-width="5" stroke-miterlimit="10"/>
</svg>
